packages/icons/src/components/ProductIcon/assets/route-rules.svg

<svg width="64" height="64" viewBox="0 0 64 64" fill="none" xmlns="http://www.w3.org/2000/svg">
<g>
<path d="M0 16C0 7.16344 7.16344 0 16 0H48C56.8366 0 64 7.16344 64 16V48C64 56.8366 56.8366 64 48 64H16C7.16344 64 0 56.8366 0 48V16Z" fill="#521094" class="fillWeak"/>
<path fill-rule="evenodd" clip-rule="evenodd" d="M48 2H16C8.26801 2 2 8.26801 2 16V48C2 55.732 8.26801 62 16 62H48C55.732 62 62 55.732 62 48V16C62 8.26801 55.732 2 48 2ZM16 0C7.16344 0 0 7.16344 0 16V48C0 56.8366 7.16344 64 16 64H48C56.8366 64 64 56.8366 64 48V16C64 7.16344 56.8366 0 48 0H16Z" fill="#521094" class="fillWeak"/>
<path d="M19.9316 17C25.4621 17 30.287 20.0207 32.8662 24.501C33.1417 24.9795 32.9774 25.5906 32.499 25.8662C32.0205 26.1417 31.4094 25.9774 31.1338 25.499C29.863 23.2915 27.9656 21.4973 25.6885 20.3574C26.7433 21.7844 27.5821 23.5839 28.1494 25.6045C28.2987 26.1361 27.9886 26.6885 27.457 26.8379C26.9254 26.9872 26.373 26.6771 26.2236 26.1455C25.5995 23.9226 24.6455 22.1033 23.5225 20.8594C22.7051 19.9541 21.8259 19.382 20.9316 19.1377V31H24C24.5523 31 25 31.4477 25 32C25 32.5523 24.5523 33 24 33H20.9316V44.8613C21.8258 44.617 22.7051 44.0459 23.5225 43.1406C24.6455 41.8967 25.5995 40.0774 26.2236 37.8545C26.373 37.3229 26.9254 37.0128 27.457 37.1621C27.9886 37.3115 28.2987 37.8639 28.1494 38.3955C27.5822 40.4158 26.7431 42.2147 25.6885 43.6416C27.9654 42.5017 29.8631 40.7084 31.1338 38.501C31.4094 38.0226 32.0205 37.8583 32.499 38.1338C32.9774 38.4094 33.1417 39.0205 32.8662 39.499C30.287 43.9793 25.4621 47 19.9316 47C11.6805 46.9998 5 40.2796 5 32C5 23.7204 11.6805 17.0002 19.9316 17ZM12.8887 33C13.0292 36.3158 13.86 39.2574 15.0947 41.4004C16.2011 43.3206 17.5506 44.4821 18.9316 44.8613V33H12.8887ZM7.03809 33C7.39183 37.6762 10.2057 41.6571 14.1787 43.6445C13.8883 43.2525 13.6136 42.8363 13.3613 42.3984C11.9303 39.9146 11.0291 36.6183 10.8877 33H7.03809ZM18.9316 19.1377C17.5505 19.5168 16.2012 20.6793 15.0947 22.5996C13.86 24.7426 13.0292 27.6842 12.8887 31H18.9316V19.1377ZM14.1787 20.3545C10.2055 22.3419 7.39184 26.3236 7.03809 31H10.8877C11.0291 27.3817 11.9303 24.0853 13.3613 21.6016C13.6138 21.1635 13.8881 20.7467 14.1787 20.3545Z" fill="#BF95F9" class="fillStrong"/>
<path d="M45.2972 20.001L50.4308 20.2211L50.6302 20.249C51.1482 20.3735 51.4905 20.8831 51.4087 21.4137L51.3655 21.5909L49.6989 26.5327L49.6235 26.704C49.4157 27.0806 48.994 27.2898 48.5699 27.2268L48.3887 27.1827L48.2181 27.1071C47.8431 26.8984 47.6348 26.4749 47.6976 26.049L47.7414 25.8669L48.3774 23.9808L35.0507 30.6721C35.0824 30.7666 35.1109 30.8626 35.1359 30.96L53.8894 30.9608L52.2195 29.7214L52.0799 29.5972C51.7442 29.2389 51.7007 28.6799 52.0021 28.2701C52.3035 27.8603 52.8481 27.7375 53.2879 27.9545L53.4472 28.0518L57.5805 31.1173L57.7303 31.2524C58.0859 31.6416 58.0904 32.246 57.7405 32.6405L57.5927 32.7777L53.4594 35.9388L53.3015 36.0385C52.9196 36.234 52.4535 36.1706 52.137 35.8802L52.0112 35.7419L51.9119 35.5834C51.7173 35.1998 51.7804 34.7317 52.0696 34.4139L52.2073 34.2876L53.8398 33.0363L35.1364 33.0379C35.1113 33.1358 35.0827 33.2324 35.0508 33.3274L48.3774 40.0192L47.7414 38.1331L47.6976 37.951C47.6348 37.5251 47.8431 37.1016 48.2181 36.8929L48.3887 36.8172L48.5699 36.7732C48.994 36.7102 49.4157 36.9194 49.6235 37.296L49.6989 37.4673L51.3655 42.4091L51.4087 42.5863C51.4905 43.1169 51.1482 43.6265 50.6302 43.751L50.4308 43.7789L45.2972 43.999C44.7271 44.0235 44.2451 43.5791 44.2208 43.0065C44.1991 42.4975 44.5463 42.0585 45.0242 41.9501L45.2091 41.9254L47.3668 41.8332L33.9107 35.0742C33.245 35.6811 32.3813 36.073 31.4285 36.1405L31.1333 36.1509C28.8506 36.1509 27 34.2924 27 31.9999C27 29.807 28.6931 28.0113 30.8381 27.8593L31.1333 27.8488C32.2025 27.8488 33.1768 28.2565 33.9107 28.9255L47.3668 22.1668L45.2091 22.0746L45.0242 22.0499C44.5463 21.9415 44.1991 21.5025 44.2208 20.9935C44.2451 20.4209 44.7271 19.9765 45.2972 20.001ZM31.1333 29.789C29.9175 29.789 28.9319 30.7789 28.9319 31.9999C28.9319 33.2209 29.9175 34.2108 31.1333 34.2108C32.3492 34.2108 33.3348 33.2209 33.3348 31.9999C33.3348 30.7789 32.3492 29.789 31.1333 29.789Z" fill="white" class="fill"/>
</g>
<defs>
<rect width="64" height="64" fill="white"/>
</defs>
</svg>

<svg xmlns="http://www.w3.org/2000/svg" width="64" height="64" fill="none" viewBox="0 0 64 64">
    <path fill="#521094" d="M0 16C0 7.163 7.163 0 16 0h32c8.837 0 16 7.163 16 16v32c0 8.837-7.163 16-16 16H16C7.163 64 0 56.837 0 48z" class="fillWeak"/>
    <path fill="#521094" fill-rule="evenodd" d="M48 2H16C8.268 2 2 8.268 2 16v32c0 7.732 6.268 14 14 14h32c7.732 0 14-6.268 14-14V16c0-7.732-6.268-14-14-14M16 0C7.163 0 0 7.163 0 16v32c0 8.837 7.163 16 16 16h32c8.837 0 16-7.163 16-16V16c0-8.837-7.163-16-16-16z" class="fillWeak" clip-rule="evenodd"/>
    <path fill="#bf95f9" d="M19.932 17c5.53 0 10.355 3.02 12.934 7.501a1 1 0 0 1-1.732.998 13 13 0 0 0-5.445-5.142c1.054 1.427 1.893 3.227 2.46 5.248a1 1 0 0 1-1.925.54c-.625-2.222-1.579-4.042-2.701-5.286-.818-.905-1.697-1.477-2.591-1.721V31H24a1 1 0 1 1 0 2h-3.068v11.861c.894-.244 1.773-.815 2.59-1.72 1.124-1.244 2.078-3.064 2.702-5.286a1 1 0 0 1 1.925.54c-.567 2.02-1.406 3.82-2.46 5.247a13 13 0 0 0 5.445-5.141 1 1 0 0 1 1.732.998C30.287 43.979 25.462 47 19.932 47 11.68 47 5 40.28 5 32s6.68-15 14.932-15m-7.043 16c.14 3.316.971 6.257 2.206 8.4 1.106 1.92 2.456 3.082 3.837 3.461V33zm-5.85 0a13 13 0 0 0 7.14 10.645 13 13 0 0 1-.818-1.247c-1.43-2.483-2.332-5.78-2.473-9.398zm11.893-13.862c-1.381.379-2.73 1.541-3.837 3.462-1.235 2.143-2.066 5.084-2.206 8.4h6.043zm-4.753 1.217A13 13 0 0 0 7.039 31h3.849c.141-3.618 1.042-6.915 2.473-9.398q.38-.659.818-1.247" class="fillStrong"/>
    <path fill="#fff" d="m45.297 20.001 5.134.22.2.028c.517.125.86.634.778 1.165l-.044.177-1.666 4.942-.075.171c-.208.377-.63.586-1.054.523l-.181-.044-.17-.076a1.04 1.04 0 0 1-.521-1.058l.043-.182.636-1.886-13.326 6.691q.047.142.085.288h18.753l-1.67-1.239-.14-.124a1.04 1.04 0 0 1-.077-1.327 1.03 1.03 0 0 1 1.286-.316l.16.098 4.133 3.065.15.135c.355.39.36.994.01 1.389l-.148.137-4.134 3.16-.158.1a1.03 1.03 0 0 1-1.164-.158l-.126-.138-.1-.159a1.04 1.04 0 0 1 .159-1.17l.137-.125 1.633-1.252-18.704.002a4 4 0 0 1-.085.29l13.326 6.691-.636-1.886-.043-.182a1.04 1.04 0 0 1 .52-1.058l.17-.076.182-.044c.424-.063.846.146 1.053.523l.076.171 1.666 4.942.044.177a1.04 1.04 0 0 1-.779 1.165l-.2.028-5.133.22a1.035 1.035 0 0 1-1.076-.992 1.04 1.04 0 0 1 .803-1.057l.185-.025 2.158-.092-13.456-6.759a4.1 4.1 0 0 1-2.483 1.067l-.295.01A4.143 4.143 0 0 1 27 32a4.144 4.144 0 0 1 3.838-4.14l.295-.011c1.07 0 2.044.407 2.778 1.076l13.456-6.758-2.158-.092-.185-.025a1.04 1.04 0 0 1-.803-1.056A1.035 1.035 0 0 1 45.297 20m-14.164 9.788c-1.215 0-2.201.99-2.201 2.21 0 1.222.986 2.212 2.201 2.212s2.202-.99 2.202-2.211-.986-2.211-2.202-2.211" class="fill"/>
</svg>
